X:1173
T:Prince Fredrick's March.
M:C
L:1/8
Q:1/2=72
I: :: ::
N:bar 6 voice 2 printed as |g2e>e e2g2|
Z:Jack Campin * www.campin.me.uk * 2009
K:D
[V:1]      d2d>d d2f>d|e2  A>A A4   |e2 e>e e2 f>g|f>ed2
[V:2]      F2F>F F2D2 |A>A A2  FDFA |A2 A>A c2 A2 |B2 F2
%
[V:1] zefg|a2f>e d2f2 |e2  A>A A2f2 |f2 e>d a2 g>f|e8        :|
[V:2] zcde|f2a>g f2a2 |g2  e>e e2f2 |a2 g>f f2 e>d|A8        :|
%
[V:1]      e2e>e e2f>g|f2  e>d e2A2 |a2 a>a a>gf>g|a2 g>f e3 A|
[V:2]      A2A>A c2A2 |d2  G2  A4   |f2 f>f f>ed>e|f2 e>d A2G2|
%
[V:1]      d2d>d d2f>d|e2  e>e e2g>e|f>ed>e e3   d|d8        :|
[V:2]      F2F>F F2D2 |A2  A>A A2c2 |d2 F>G A4    |F8        :|
<end>
<start>
